X: 47
T: Missa De sancta cruce / Kyrie
N: Derived from Rue1011a-Missa_De_sancta_cruce-Kyrie.krn
C: Pierre de la Rue
%%abc-version 2.0
%%abcx-abcm2ps-target-version 5.9.1 (29 Sep 2008)
%%abc-creator hum2abc beta
%%abcx-conversion-date 2019/02/17 08:01:11
%%abc-edited-by Jesse Rodin
%%abc-edited-by Chris Gage 09-22-2012
%%abcx-initial-encoding-date 2012/09/29/
%%humdrum-veritas 2058586148
%%humdrum-veritas-data 736048392
%%linebreak <none>
%%barnumbers 0
L: 1/4
M: 3/1
Q: 1/2=120
V: 1 clef=treble
V: 2 clef=treble
V: 3 clef=treble-8
V: 4 clef=treble-8
V: 5 clef=bass
K: F
[V:1] G8GABG | 
[V:2] D8D4 | 
[V:3] z12 | 
[V:4] G8B4- | 
[V:5] z12 | 
[V:1] d4d2A4c2- | 
[V:2] F6EDC4 | 
[V:3] z12 | 
[V:4] B4A8 | 
[V:5] D,8F,4 | 
[V:1] cBG4G3AB2 | 
[V:2] z4z4D4 | 
[V:3] G8B4 | 
[V:4] c4G4d4 | 
[V:5] C,4E,4G,4 | 
[V:1] c2d4c2f4 | 
[V:2] A6G2F3G | 
[V:3] A8B4 | 
[V:4] z2f3ec2d4 | 
[V:5] F,6E,2D,4 | 
[V:1] e4c2d2B2d2- | 
[V:2] A2G2E2G3FD2- | 
[V:3] c6B2G2B2- | 
[V:4] z2G2A2G2d3c | 
[V:5] C,4z4z4 | 
[V:1] d2c2d2B2c4 | 
[V:2] DEF2B,2B4A2 | 
[V:3] B2F2B2d2c4 | 
[V:4] B2A2G2B2F4 | 
[V:5] z12 | 
[V:1] d4z2d2B2d2- | 
[V:2] B12 | 
[V:3] B4z2B2G2B2- | 
[V:4] d12 | 
[V:5] G,8G,4 | 
[V:1] d2c3BG4G2 | 
[V:2] z2F4G2E4 | 
[V:3] B2A4B2c2G2 | 
[V:4] f3ecde4c2 | 
[V:5] D,2F,4E,2C,2E,2 | 
[V:1] d3cB2A2c3B | 
[V:2] F2G4A3GFE | 
[V:3] z2B4d2c2A2 | 
[V:4] d8A4 | 
[V:5] D,2G,4F,4F,2 | 
[V:1] G4G2d4c2 | 
[V:2] D2E2D2G,2z4 | 
[V:3] B2c2G4z2c2- | 
[V:4] z4d4B2c2 | 
[V:5] G,2C,2G,2B,4A,2 | 
[V:1] A2B2z2A2B2c2 | 
[V:2] z2G4F2E4 | 
[V:3] c2B2c2d4^c2 | 
[V:4] d4c2A2z2A2- | 
[V:5] F,2G,2C,2F,2G,2A,2 | 
[V:1] A2c4d2e4 | 
[V:2] F2G2A2z2A4- | 
[V:3] d2e4d4^c2 | 
[V:4] A2E2A2D2A4 | 
[V:5] D,2C,3A,,B,,2A,,4 | 
[V:1] f3edcB2A2G2 | 
[V:2] A4F3GA2BG- | 
[V:3] d12- | 
[V:4] z2A2B2d3cB2 | 
[V:5] z2D,4D,E,F,2G,2 | 
[V:1] A2B4A4G2 | 
[V:2] GFG2G2F2D3E | 
[V:3] d12- | 
[V:4] A2G2d3cB4 | 
[V:5] D,2G,3F,D,2G,4 | 
[V:1] A12 ||  
[V:2] F12 ||  
[V:3] d12 ||  
[V:4] A12 ||  
[V:5] D,12 ||  
[V:1]  [K:F] [K:clef=treble][M:2/1]d8- | 
[V:2]  [K:F] [K:clef=treble][M:2/1]A8- | 
[V:3]  [K:F] [K:clef=treble-8][M:2/1]f8- | 
[V:4]  [K:F] [K:clef=treble-8][M:2/1]A8 | 
[V:5]  [K:F] [K:clef=bass][M:2/1]D,8- | 
[V:1] d8 | 
[V:2] A8- | 
[V:3] f8- | 
[V:4] d6cB | 
[V:5] D,8 | 
[V:1] c8 | 
[V:2] A8 | 
[V:3] f8 | 
[V:4] A8 | 
[V:5] F,8 | 
[V:1] B8 | 
[V:2] G8 | 
[V:3] d8- | 
[V:4] B6c2 | 
[V:5] G,8 | 
[V:1] A8 | 
[V:2] F8 | 
[V:3] d8 | 
[V:4] d4A4- | 
[V:5] D,8 | 
[V:1] A8 | 
[V:2] E8 | 
[V:3] c8 | 
[V:4] A4c4 | 
[V:5] z4A,4 | 
[V:1] z8 | 
[V:2] z8 | 
[V:3] d8- | 
[V:4] B2B4AG | 
[V:5] G,2G,4F,E, | 
[V:1] d4c2c2- | 
[V:2] A4G2G2- | 
[V:3] d4e4- | 
[V:4] A3Bc4 | 
[V:5] F,3G,C,4 | 
[V:1] c2BAB3c | 
[V:2] G2FEF3G | 
[V:3] e4d4 | 
[V:4] z8 | 
[V:5] z8 | 
[V:1] A8 | 
[V:2] E2F2E2A2- | 
[V:3] c2c4BA | 
[V:4] c3de2f2 | 
[V:5] A,8 | 
[V:1] z4A4 | 
[V:2] A2G2A4- | 
[V:3] B2c2A4 | 
[V:4] e8- | 
[V:5] E,4A,4- | 
[V:1] c8 | 
[V:2] A4A4 | 
[V:3] z8 | 
[V:4] e8 | 
[V:5] A,4A,4 | 
[V:1] d4e4- | 
[V:2] A8- | 
[V:3] A4c4- | 
[V:4] f4e4 | 
[V:5] D,4A,4- | 
[V:1] e4d4- | 
[V:2] A8 | 
[V:3] c4d4 | 
[V:4] c4f4 | 
[V:5] A,4D,4 | 
[V:1] d2c2c4 | 
[V:2] G4A4 | 
[V:3] e8 | 
[V:4] z4c4 | 
[V:5] z4A,4 | 
[V:1] d8 | 
[V:2] F4B4- | 
[V:3] d8 | 
[V:4] B2d3ef2- | 
[V:5] B,6A,2 | 
[V:1] z4f4- | 
[V:2] B4A4 | 
[V:3] z8 | 
[V:4] f2e2f4 | 
[V:5] G,4F,4 | 
[V:1] f2e2d4 | 
[V:2] F4G4 | 
[V:3] f8- | 
[V:4] d6cB | 
[V:5] B,8 | 
[V:1] c6d2- | 
[V:2] A8 | 
[V:3] f8 | 
[V:4] A8 | 
[V:5] F,8 | 
[V:1] d2c4=B2 | 
[V:2] G8 | 
[V:3] d8 | 
[V:4] z8 | 
[V:5] G,8 | 
[V:1] c8 | 
[V:2] E8- | 
[V:3] c8- | 
[V:4] G4G2A2- | 
[V:5] C,8- | 
[V:1] z4c4 | 
[V:2] E8 | 
[V:3] c8 | 
[V:4] A2GFG2A2 | 
[V:5] C,8 | 
[V:1] d8 | 
[V:2] F3GA2B2- | 
[V:3] z8 | 
[V:4] D8 | 
[V:5] z8 | 
[V:1] c4B4 | 
[V:2] B2A3FG2 | 
[V:3] z8 | 
[V:4] z4d4 | 
[V:5] z4G,4 | 
[V:1] A6GA | 
[V:2] E4C4 | 
[V:3] z4c4 | 
[V:4] c3de2f2 | 
[V:5] A,8 | 
[V:1] B2d3cB2- | 
[V:2] z8 | 
[V:3] d8 | 
[V:4] g2fed4 | 
[V:5] G,4F,4 | 
[V:1] B2A4G2 | 
[V:2] z8 | 
[V:3] c4B4 | 
[V:4] e8 | 
[V:5] E,8 | 
[V:1] A4A3B | 
[V:2] E4C2F2- | 
[V:3] A8- | 
[V:4] c6A2- | 
[V:5] z4F,4- | 
[V:1] c2d4c2 | 
[V:2] FGA3GA2 | 
[V:3] A8 | 
[V:4] A2F2A2c2 | 
[V:5] F,2D,2F,2A,2 | 
[V:1] d4f4 | 
[V:2] D8 | 
[V:3] B8 | 
[V:4] B2G4F2 | 
[V:5] G,2F,E,D,4 | 
[V:1] e2c4BA | 
[V:2] z4G3F | 
[V:3] c8- | 
[V:4] G8 | 
[V:5] C,8 | 
[V:1] G4z4 | 
[V:2] EDC2G2C2 | 
[V:3] c8 | 
[V:4] z4z2_e2- | 
[V:5] z4z2C2- | 
[V:1] z8 | 
[V:2] G8- | 
[V:3] _e8- | 
[V:4] e2dcB2c2 | 
[V:5] C2B,A,G,2C,2 | 
[V:1] z8 | 
[V:2] G8 | 
[V:3] e8 | 
[V:4] B2c4BA | 
[V:5] G,2C,3D,E,F, | 
[V:1] z8 | 
[V:2] z2G3ABc | 
[V:3] d8- | 
[V:4] B3cd2G2- | 
[V:5] G,8- | 
[V:1] z4d4 | 
[V:2] d2c4=B2 | 
[V:3] d8 | 
[V:4] G2g4g2- | 
[V:5] G,8 | 
[V:1] e8 | 
[V:2] c6BA | 
[V:3] c8 | 
[V:4] g2e4c2- | 
[V:5] C,8- | 
[V:1] e4c4 | 
[V:2] G8- | 
[V:3] z4c4 | 
[V:4] c2BAG4- | 
[V:5] C,8 | 
[V:1] d4e4- | 
[V:2] G8- | 
[V:3] B4c4- | 
[V:4] G4G4 | 
[V:5] z4C,4- | 
[V:1] e2c2d4 | 
[V:2] G8- | 
[V:3] c4B4 | 
[V:4] G8 | 
[V:5] C,4G,4 | 
[V:1] c8- | 
[V:2] G8 | 
[V:3] c4_e4- | 
[V:4] z8 | 
[V:5] C,4C4- | 
[V:1] c4B4 | 
[V:2] G8- | 
[V:3] e2c2d4- | 
[V:4] z4G4- | 
[V:5] C2B,A,G,4 | 
[V:1] c8 | 
[V:2] G4C4 | 
[V:3] d2c2c4- | 
[V:4] G4A4 | 
[V:5] E,4F,4 | 
[V:1] d8 | 
[V:2] F8 | 
[V:3] c4=B4 | 
[V:4] F8 | 
[V:5] D,8 | 
[V:1] G8- | 
[V:2] E8- | 
[V:3] c4G4 | 
[V:4] G6c2- | 
[V:5] C,8- | 
[V:1] G8- | 
[V:2] E8- | 
[V:3] c8 | 
[V:4] cdefg2c2 | 
[V:5] C,8- | 
[V:1] G8 ||  
[V:2] E8 ||  
[V:3] G8 ||  
[V:4] c8 ||  
[V:5] C,8 ||  
[V:1]  [K:F] [K:clef=treble][M:3/1]G8G4 | 
[V:2]  [K:F] [K:clef=treble][M:3/1]E8G4- | 
[V:3]  [K:F] [K:clef=treble-8][M:3/1]G12- | 
[V:4]  [K:F] [K:clef=treble-8][M:3/1]c8B4- | 
[V:5]  [K:F] [K:clef=bass][M:3/1]C,8_E,4- | 
[V:1] B8d4 | 
[V:2] G4F8 | 
[V:3] G4B8 | 
[V:4] B4d8 | 
[V:5] E,4B,,8 | 
[V:1] G2B3cd2_e2c2 | 
[V:2] G3EFGABc4 | 
[V:3] B6A6 | 
[V:4] B2G4F4_E2 | 
[V:5] _E,4D,4C,4 | 
[V:1] d2f3ed4cB | 
[V:2] F6B4AG | 
[V:3] B4d8 | 
[V:4] F8F4 | 
[V:5] B,,8B,,4 | 
[V:1] A2c4B4A2 | 
[V:2] F8F4 | 
[V:3] c12 | 
[V:4] F2A4B2c4 | 
[V:5] F,8F,4 | 
[V:1] B6d3cBA | 
[V:2] F3EFGA2D2G2- | 
[V:3] d8B4 | 
[V:4] B6A2B2G2- | 
[V:5] B,,4z2F,2G,3F, | 
[V:1] G2c2G2c3de2 | 
[V:2] GFE3DC4A2- | 
[V:3] c4c2G2c4 | 
[V:4] G2g3fedcBA2- | 
[V:5] E,D,C,3D,E,2F,3E, | 
[V:1] f2d4c4=B2 | 
[V:2] A2B3AGFG4 | 
[V:3] d2f4e2d4 | 
[V:4] A2d3GG2z2G2 | 
[V:5] D,C,B,,4C,2G,4 | 
[V:1] c12 | 
[V:2] G12 | 
[V:3] z2c2G2c3de2 | 
[V:4] c2G2c3BA2G2 | 
[V:5] C,8z2C,2 | 
[V:1] z12 | 
[V:2] z4z4F4 | 
[V:3] f2d4c4=B2 | 
[V:4] F2A4G4F2 | 
[V:5] D,2F,3E,D,C,D,4 | 
[V:1] c8B2A2 | 
[V:2] E2F4F2D2F2 | 
[V:3] c8z2c2 | 
[V:4] G2A3GA2B2c2 | 
[V:5] C,2F,3E,F,2G,2F,2 | 
[V:1] d4B2c2d4 | 
[V:2] D3EF8- | 
[V:3] B2d4c2B2d2- | 
[V:4] z2F3GA2F2F2- | 
[V:5] B,,3C,D,B,,F,2B,,3C, | 
[V:1] B2c2d2c2A2B2 | 
[V:2] F12 | 
[V:3] d2c2B2c4B2 | 
[V:4] FGA2B2A2F4 | 
[V:5] D,B,,F,2B,,2F,3E,D,2 | 
[V:1] c4A2B2c2B2- | 
[V:2] z2G2F3GA2F2- | 
[V:3] A2c4BAA2d2- | 
[V:4] E4F4E2D2 | 
[V:5] C,4D,4A,,2B,,2- | 
[V:1] B2A2G2F2G3A | 
[V:2] F2EDD8 | 
[V:3] d2c2B2A2B3A | 
[V:4] F4z4z4 | 
[V:5] B,,2F,2G,2D,2G,4 | 
[V:1] A12- | 
[V:2] z2D2E2D2F3E | 
[V:3] A12- | 
[V:4] F4E2F2D2F2- | 
[V:5] D,4C,2D,4A,,2 | 
[V:1] A12 |]  
[V:2] C3DE8 |]  
[V:3] A12 |]  
[V:4] F2E2E8 |]  
[V:5] A,,12 |]  



